src/assets/svgs/refactor/bridge-disconnect.svg

<svg fill="none" height="22" viewBox="0 0 22 22" width="22" xmlns="http://www.w3.org/2000/svg"><g fill="#101010"><path d="m18.6396 12.4269c-.3683.3682-.962.3682-1.3303 0-.1803-.1803-.278-.4132-.278-.6686s.0977-.4883.278-.6686l1.5257-1.5251c1.706-1.70538 1.706-4.59025 0-6.29564l-.1127-.11269c-1.7061-1.70538-4.5921-1.69787-6.2981 0l-1.5257 1.53259c-.3682.36813-.96196.36813-1.33022 0-.18037-.1803-.27808-.41319-.27808-.66863 0-.24792.09771-.48832.27808-.66863l1.52562-1.52507c2.4351-2.434118 6.5386-2.434118 8.9661-.00752l.1128.11269c2.435 2.4266 2.435 6.52854.0075 8.9627l-1.5257 1.525z"/><path d="m10.8985 20.18c-2.42749 2.4266-6.531 2.4266-8.95854 0l-.11273-.1126c-2.435052-2.4266-2.435052-6.5286-.00752-8.9627l1.52567-1.52507c.36826-.36812.96199-.36812 1.33025 0 .36827.36812.36827.96167 0 1.32977l-1.52566 1.5251c-1.70604 1.7129-1.70604 4.5902 0 6.2956l.11273.1127c1.70604 1.7054 4.59203 1.6979 6.29807 0l1.52563-1.5326c.3683-.3681.962-.3681 1.3303 0 .1804.1803.2781.4132.2781.6686 0 .2479-.0977.4884-.2781.6687l-1.5332 1.5325z"/><path d="m17.8805 17.8736c-.3682.3682-.962.3682-1.3302 0l-12.44585-12.41093c-.18037-.1803-.27808-.4132-.27808-.66863 0-.24792.09771-.48832.27808-.66863.36826-.36812.96199-.36812 1.33026 0l12.44579 12.41099c.1804.1803.2781.4132.2781.6686 0 .2479-.0977.4883-.2781.6686z"/></g></svg>

<svg width="22" height="22" viewBox="0 0 22 22" fill="none" xmlns="http://www.w3.org/2000/svg">
<path d="M18.6396 12.4269C18.2713 12.7951 17.6776 12.7951 17.3093 12.4269C17.129 12.2466 17.0313 12.0137 17.0313 11.7583C17.0313 11.5029 17.129 11.27 17.3093 11.0897L18.835 9.5646C20.541 7.85922 20.541 4.97435 18.835 3.26896L18.7223 3.15627C17.0162 1.45089 14.1302 1.4584 12.4242 3.15627L10.8985 4.68886C10.5303 5.05699 9.93654 5.05699 9.56828 4.68886C9.38791 4.50856 9.2902 4.27567 9.2902 4.02023C9.2902 3.77231 9.38791 3.53191 9.56828 3.3516L11.0939 1.82653C13.529 -0.607588 17.6325 -0.607588 20.06 1.81901L20.1728 1.9317C22.6078 4.3583 22.6078 8.46024 20.1803 10.8944L18.6546 12.4194L18.6396 12.4269Z" fill="#101010"/>
<path d="M10.8985 20.18C8.47101 22.6066 4.3675 22.6066 1.93996 20.18L1.82723 20.0674C-0.607822 17.6408 -0.607822 13.5388 1.81971 11.1047L3.34538 9.57963C3.71364 9.21151 4.30737 9.21151 4.67563 9.57963C5.0439 9.94775 5.0439 10.5413 4.67563 10.9094L3.14997 12.4345C1.44393 14.1474 1.44393 17.0247 3.14997 18.7301L3.2627 18.8428C4.96874 20.5482 7.85473 20.5407 9.56077 18.8428L11.0864 17.3102C11.4547 16.9421 12.0484 16.9421 12.4167 17.3102C12.5971 17.4905 12.6948 17.7234 12.6948 17.9788C12.6948 18.2267 12.5971 18.4672 12.4167 18.6475L10.8835 20.18H10.8985Z" fill="#101010"/>
<path d="M17.8805 17.8736C17.5123 18.2418 16.9185 18.2418 16.5503 17.8736L4.10445 5.46267C3.92408 5.28237 3.82637 5.04947 3.82637 4.79404C3.82637 4.54612 3.92408 4.30572 4.10445 4.12541C4.47271 3.75729 5.06644 3.75729 5.43471 4.12541L17.8805 16.5364C18.0609 16.7167 18.1586 16.9496 18.1586 17.205C18.1586 17.4529 18.0609 17.6933 17.8805 17.8736Z" fill="#101010"/>
</svg>
